X:1
T:Through Monin' Pines
T:Through Moanin' Pines
T:No. 1 from Piano Sketchs: From the Southland
T:H. T. Burleigh
T:Public Domain (PianoXML typeset)
T:Public Domain (PianoXML typeset)
C:H. T. Burleigh
Z:Public Domain (PianoXML typeset)
%%score { ( 1 3 5 ) | ( 2 4 6 7 ) }
L:1/8
Q:1/4=66
M:4/4
K:A
V:1 treble nm="Piano" snm="Pno."
V:3 treble 
V:5 treble 
V:2 bass 
V:4 bass 
V:6 bass 
V:7 bass 
V:1
"^Andante semplice"!mf! (E2 | F2 F2- FEFA | B2 B4) (AB |!>(! cBAF- F2 E2!>)! |"_rit." C6)!pp! (C2 | %5
"_a tempo" F2 F2- FEFA | B2 B4)!<(! (AB!<)! |"_poco rit." cBAF-!>(! F2 E2!>)! | %8
 [CA]6)!mf!"_a tempo" (ec | [FB]2 B2- B!<(!BAB | [Ac]2 !>![Ac]4)!<)!!p! (fc | %11
 [FB]2!>(! B2- BBAB!>)! | [Ac]6)"_poco accel." (ec | B4- B"_cresc."BAB | c6) (fc | %15
 B4-!<(! BBAB)!<)! | (c g2- g2"_decresc." ^e !>!^de | c2 g2- g^e) (^de | %18
 [Gc]2) (^d^e"_rit." [Gc]2) (de | [Gc]2)"_morendo" (=d=e [Gc]2)!>(! (de!>)! | [Gc]4 [=G=d]4 | %21
!<(! [=G^d]4 [Fe]4 | [^EB^e]8)!<)! |!f! ([Af]2"_a tempo" f2- f!<(!=efa | %24
 [Bb]2 [Bb]4) ([Aa][Bb]!<)! | [cfc'][Bb][Afa][Ff]-!>(! [Ff]2 [Ee]2!>)! | %26
 [Cc]2)!mf!!<(! D4!<)!!>(! C2!>)! |!p! (F2 F2- F"_cresc."=EFA | B2!<(! B4) (AB!<)! | %29
 cBAF-!>(! F2 E2 | [CA]6)!>)!!pp! (ec | .[DFB]2!>(! B2- BABc | .[CF]2!>)! F2-) (FEec | %33
"_rit." .[=DB]2!<(! B2- BABc | [Ff]4)!<)! z!f! (e[^df]a | [=dfb]4) z!p! (e!<(!^e"_rit. e dim."a | %36
 [^c^eb]4)!<)! z!pp! (=E^EA | [^DB]2 !fermata![DB]2)"_a tempo"!p!!<(! z4!<)! | z8 | z8 |] %40
V:2
 z2 | [F,A,C]4 [F,A,C]4 | [F,B,D]4 [F,B,D]4 | [F,A,B,^D]4 [^D,A,B,-]2 [E,G,B,]2 | %4
 [F,A,]4 [G,,C,^E,]4 | C,8 | (F,4 G,2 F,G,) | [B,,F,A,]4 [E,G,]4 | [A,,E,]6 z2 | [B,D]2 [B,D]4 D2 | %10
 [F,C]2 !>![F,C]4 z2 | [B,D]2 [B,D]4 [B,D]2 | [A,E]6 z2 | D !>!E2 D E2 D2 | C D2 C D2 C2 | %15
 D !>!E2 D E2 D2 | ^E6 [G,^D]2 | ^E6 [G,^D]2 | [C^E]2 [G,F]2 [CE]2 [G,F]2 | ^E2 F2 E2 F2 | %20
 [C^E]4 [B,D]4 | [^A,C]4 [=A,=C]4 | ^D4 ^C4 | [F,C]4 [F,C]4 | [F,G,B,D]4 [F,G,B,D]4 | %25
 [F,A,B,^D]4 [^D,A,B,-]2 [E,G,B,]2 | [F,A,]2 [=D,F,]2 [^G,,^E,]2 [=G,,E,]2 | C,8 | F,4 G,2 F,G, | %29
 [B,,F,A,]4 [E,,B,,E,]4 | [A,,E,]6 z2 | .[A,,E,B,]2 [A,,E,B,]4 [A,,E,B,]2 | %32
 .[A,,^D,]2 D,2- D,E,F,A, | .[A,,=F,B,]2 B,2- B,A,B,C | !arpeggio![A,,E,C]4 z4 | z8 | z8 | %37
 [F,A,C]2 !fermata![F,A,C]2 z2 A,B, | CB,A,!pp!F,-!>(! F,2"_dim." E,2-!>)! | E,2 A,4 z2 |] %40
V:3
 x2 | x8 | x8 | x8 | z4 B,4 | A,8 | D8 | ^D4 =D4 | x6 z2 | x2 F4 F2 | x6 z2 | x2 F4 =F2 | x6 z2 | %13
 x8 | x8 | x8 | x8 | x8 | x8 | x8 | x8 | x8 | x8 | x2 A4 A2 | x8 | x8 | x2 A,2 B,2 B,2 | A,8 | D8 | %29
 [^DA]4 [G,=D]4 | x6 z2 | x2 [DF]4 [DF]2 | x2 C4 E2 | x2 D6 | x6 [Ac]2 | [GB]4 x E^EA | [=GB]4 x4 | %37
 x8 | x8 | x8 |] %40
V:4
 x2 | x8 | x8 | x8 | x8 | F,,4 =E,,4 | [D,,A,,]8 | x8 | x8 | x6 D2 | x8 | x8 | x8 | B,6 D2 | %14
 F,6 F,2 | B,6 D2 | C3 G, C,2 x2 | C2- CG, C,2 x2 | x8 | C4 C4 | x8 | x8 | [^C,G,B,]8 | x8 | x8 | %25
 x8 | x8 | F,,4 =E,,4 | [D,,A,,]8 | x8 | x8 | x8 | x2 A,,4 A,,2 | x2 [A,,=F,]6 | x8 | x8 | x8 | %37
 x8 | A,,2 =C,2 x4 | [A,,,A,,]6 x2 |] %40
V:5
 x2 | x8 | x8 | x8 | x8 | x8 | x8 | x8 | x8 | x8 | x8 | x8 | x8 | F G2 F G2 F2 | A B2 A B2 A2 | %15
 F G2 F G2 F2 | G6 [F^A]2 | G6 [F^A]2 | x2 ^A2 x2 A2 | x2 =A2 x2 A2 | x8 | x8 | x8 | x8 | x8 | x8 | %26
 x8 | x8 | x8 | x8 | x8 | x8 | x8 | x8 | x8 | x8 | x8 | x8 | x8 | x8 |] %40
V:6
 x2 | x8 | x8 | x8 | x8 | x8 | x8 | x8 | x8 | x8 | x8 | x8 | x8 | x8 | x8 | x8 | x8 | x8 | x8 | %19
 x8 | x8 | x8 | x8 | x8 | x8 | x8 | x8 | x8 | x8 | x8 | x8 | x8 | x8 | x8 | x8 | x8 | x8 | x8 | %38
 F,4 [E,,B,,]4 | !fermata!C6 x2 |] %40
V:7
 x2 | x8 | x8 | x8 | x8 | x8 | x8 | x8 | x8 | x8 | x8 | x8 | x8 | x8 | x8 | x8 | x8 | x8 | x8 | %19
 x8 | x8 | x8 | x8 | x8 | x8 | x8 | x8 | x8 | x8 | x8 | x8 | x8 | x8 | x8 | x8 | x8 | x8 | x8 | %38
 D,,4 [B,F]4 | x8 |] %40

